X:1
T:Be a Golden Sunbeam
T:Charles Hutchinson Gabriel
T:Be a Golden Sunbeam
T:Public Domain
T:Public Domain
T:Public Domain
C:Charles Hutchinson Gabriel
Z:Public Domain
%%score ( 1 2 ) ( 3 4 )
L:1/8
M:4/4
K:G
V:1 treble 
V:2 treble 
V:3 bass 
V:4 bass 
V:1
 [B,D]>[B,E] [B,D]>[B,E] [B,D]2 [DB]2 | [B,G]>[B,F] [B,E]>[B,G] [CF]4 | %2
w: 1.~Be a gold- en sun- beam,|ra- di- ant and bright,|
w: 2.~When the way is gloom- y,|cheer it with a song;|
w: 3.~Be a gold- en sun- beam,|bright, and pure, and fair;|
 [CD]>[CE] [CD]>[CE] [CD]2 [Dc]2 | [DB]>[DA] [DG]>[DA] [DB]4 | %4
w: Chas- ing from life’s path- way|sor- row’s frown- ing night;|
w: Ban- ish mist and sha- dow|as you march a- long;|
w: With thy smiles and son- nets|light- en hu- man care;|
 [B,D]>[B,E] [B,D]>[B,E] [B,D]2 [DB]2 | [DB]>[DB] [DA]>[DB] [Cc]4 | %6
w: With thy gold- en sun- light|dry the dew- y tear,|
w: In the place of bri- ars,|strew the fair- est flow’rs,|
w: With the sweet- est mu- sic|from the harp of love,|
 [Ec]>[Ec] [EB]>[EA] [Dd]2 [DG]2 | [DF]>[Dc] [DB]>[CA] [B,G]4 |: %8
w: Scat- ter from the sad heart|all its doubt and fear.|
w: Wreath- ing brows with ros- es|plucked from heav’n- ly bowers.|
w: Lure the sad and wea- ry|to our home a- bove.|
"^Refrain" [Gd]>[Gd] [GB]>[Gd] [DG]2 [B,D]2 | [CE]>[DF] [EG]>[Ec] [DB]4 | %10
w: Be a gold- en sun- beam,|beau- ti- ful and bright,|
w: ||
w: Be a gold- en sun- beam,|joy- ful- ly and glad,|
 (3[Dc][DB][DA] [DB]>[Dc] [Gd]2 [DG]2 | [EG]>[^CE] [DF]>[EG] (A2 d2) :| %12
w: Scat- ter- ing clouds of dark- ness|with thy shin- ing light: *|
w: ||
w: Scat- ter- ing rays of sun- light|~ ~ ~ ~ ~ *|
 [DF]>[Dc] [DB]>[CA] [B,G]4 |] %13
w: |
w: |
w: when the way is sad.|
V:2
 x8 | x8 | x8 | x8 | x8 | x8 | x8 | x8 |: x8 | x8 | x8 | x4 F4 :| x8 |] %13
w: |||||||||||||
w: |||||||||||||
w: |||||||||||~||
V:3
 [G,,G,]>[G,,G,] [G,,G,]>[G,,G,] [G,,G,]2 [G,,G,]2 | [G,,D,]>[G,,D,] [G,,D,]>[G,,D,] [A,,D,]4 | %2
 [D,F,]>[D,G,] [D,F,]>[D,G,] [D,F,]2 [D,F,]2 | [D,G,]>[D,C] [D,B,]>[D,F,] G,4 | %4
 [G,,G,]>[G,,G,] [G,,G,]>[G,,G,] [G,,G,]2 [G,,G,]2 | G,>G, [F,A,]>[=F,G,] [E,G,]4 | %6
 [C,G,]>[C,G,] [C,G,]>[C,G,] [B,,G,]2 [B,,G,]2 | [D,A,]>[D,F,] [D,G,]>[D,F,] [G,,G,]4 |: %8
 [G,B,]>[G,B,] [G,D]>[G,B,] [G,B,]2 G,2 | [C,G,]>[C,G,] [C,G,]>[C,G,] G,4 | %10
 (3[D,A,][D,G,][D,F,] G,>[G,A,] [G,B,]2 [G,B,]2 | %11
 [A,^C]>[^G,^A,] [F,A,]>[E,C] (F,->[D,F,-] B,,>^A,,) :| [D,A,]>[D,F,] [D,G,]>[D,F,] [G,,G,]4 |] %13
V:4
 x8 | x8 | x8 | x4 G,4 | x8 | G,>G, x6 | x8 | x8 |: x6 G,2 | x4 G,4 | x2 G,3/2 x9/2 | %11
 x4 D2 [F,=C]2 :| x8 |] %13

